svgs/authy.svg

<svg width="192" height="192" viewBox="0 0 192 192" fill="none" xmlns="http://www.w3.org/2000/svg">
<path d="M68.4228 157.518L34.4817 123.577C18.0797 107.175 18.0797 80.5822 34.4817 64.1802V64.1802C50.8837 47.7782 77.4767 47.7782 93.8787 64.1802L127.82 98.1213" stroke="black" stroke-width="12" stroke-linecap="round" stroke-linejoin="round"/>
<path d="M123.577 34.4817L157.518 68.4229C173.92 84.8249 173.92 111.418 157.518 127.82V127.82C141.116 144.222 114.523 144.222 98.1213 127.82L64.1802 93.8787" stroke="black" stroke-width="12" stroke-linecap="round" stroke-linejoin="round"/>
</svg>

<svg width="192" height="192" fill="none" xmlns="http://www.w3.org/2000/svg"><path d="m68.423 157.518-33.941-33.941c-16.402-16.402-16.402-42.995 0-59.397v0c16.402-16.402 42.995-16.402 59.397 0l33.941 33.941" stroke="#000" stroke-width="12" stroke-linecap="round" stroke-linejoin="round"/><path d="m123.577 34.482 33.941 33.94c16.402 16.403 16.402 42.996 0 59.398v0c-16.402 16.402-42.995 16.402-59.397 0l-33.94-33.941" stroke="#000" stroke-width="12" stroke-linecap="round" stroke-linejoin="round"/></svg>
